icons/svg/functional-icons/subway_station_small_black2.svg

<?xml version="1.0" encoding="UTF-8" standalone="no"?>
<!-- Generator: Adobe Illustrator 16.0.4, SVG Export Plug-In . SVG Version: 6.00 Build 0)  -->

<svg
   xmlns:dc="http://purl.org/dc/elements/1.1/"
   xmlns:cc="http://creativecommons.org/ns#"
   xmlns:rdf="http://www.w3.org/1999/02/22-rdf-syntax-ns#"
   xmlns:svg="http://www.w3.org/2000/svg"
   xmlns="http://www.w3.org/2000/svg"
   xmlns:sodipodi="http://sodipodi.sourceforge.net/DTD/sodipodi-0.dtd"
   xmlns:inkscape="http://www.inkscape.org/namespaces/inkscape"
   version="1.1"
   id="Слой_1"
   x="0px"
   y="0px"
   width="20"
   height="20"
   viewBox="0 0 19.999999 20"
   enable-background="new 0 0 17.113 17.143"
   xml:space="preserve"
   inkscape:version="0.91 r13725"
   sodipodi:docname="subway_station_small_black2.svg"><metadata
     id="metadata13"><rdf:RDF><cc:Work
         rdf:about=""><dc:format>image/svg+xml</dc:format><dc:type
           rdf:resource="http://purl.org/dc/dcmitype/StillImage" /><dc:title /></cc:Work></rdf:RDF></metadata><defs
     id="defs11" /><sodipodi:namedview
     pagecolor="#ffffff"
     bordercolor="#666666"
     borderopacity="1"
     objecttolerance="10"
     gridtolerance="10"
     guidetolerance="10"
     inkscape:pageopacity="0"
     inkscape:pageshadow="2"
     inkscape:window-width="1920"
     inkscape:window-height="1006"
     id="namedview9"
     showgrid="false"
     inkscape:zoom="19.468845"
     inkscape:cx="-11.83525"
     inkscape:cy="9.935574"
     inkscape:window-x="1920"
     inkscape:window-y="0"
     inkscape:window-maximized="1"
     inkscape:current-layer="Слой_1" /><path
     style="fill:#fefefe;fill-opacity:1;fill-rule:evenodd"
     d="m 10,0.559375 c -5.2346864,0 -9.440625,4.2042511 -9.440625,9.440625 0,5.204411 4.2059386,9.440625 9.440625,9.440625 5.235793,0 9.440625,-4.236214 9.440625,-9.440625 C 19.440624,4.7636261 15.235793,0.559375 10,0.559375 Z M 10,7.72 c 1.255471,0 2.28,1.0162202 2.28,2.28 0,1.254705 -1.024529,2.28 -2.28,2.28 C 8.7448341,12.28 7.72,11.254705 7.72,10 7.72,8.7362202 8.7448341,7.72 10,7.72 Z"
     id="path3-7"
     inkscape:connector-curvature="0" /><path
     style="fill:#000000;fill-opacity:1;fill-rule:evenodd"
     d="m 9.9999994,2.02 c -4.4232677,0 -7.98,3.5553064 -7.98,7.98 0,4.397686 3.5567323,7.98 7.98,7.98 C 14.424202,17.98 17.98,14.397686 17.98,10 17.98,5.5753064 14.424202,2.02 9.9999994,2.02 Z m 0,4.5542424 c 1.8951526,0 3.4257586,1.5180629 3.4257586,3.4257576 0,1.893995 -1.530606,3.425758 -3.4257586,3.425758 -1.8946917,0 -3.4257575,-1.531763 -3.4257575,-3.425758 0,-1.9076947 1.5310658,-3.4257576 3.4257575,-3.4257576 z"
     id="path3"
     inkscape:connector-curvature="0" /></svg>

<svg width="20" height="20" viewBox="0 0 20 20" fill="none" xmlns="http://www.w3.org/2000/svg">
<path fill-rule="evenodd" clip-rule="evenodd" d="M10.0002 0.55957C4.76551 0.55957 0.55957 4.76382 0.55957 10.0002C0.55957 15.2046 4.76551 19.4408 10.0002 19.4408C15.236 19.4408 19.4408 15.2046 19.4408 10.0002C19.4408 4.76382 15.236 0.55957 10.0002 0.55957ZM10.0002 7.7202C11.2557 7.7202 12.2802 8.73642 12.2802 10.0002C12.2802 11.2549 11.2557 12.2802 10.0002 12.2802C8.74503 12.2802 7.7202 11.2549 7.7202 10.0002C7.7202 8.73642 8.74503 7.7202 10.0002 7.7202Z" fill="#FEFEFE"/>
<path fill-rule="evenodd" clip-rule="evenodd" d="M10 2.01953C5.57675 2.01953 2.02002 5.57484 2.02002 9.99953C2.02002 14.3972 5.57675 17.9795 10 17.9795C14.4242 17.9795 17.98 14.3972 17.98 9.99953C17.98 5.57484 14.4242 2.01953 10 2.01953ZM10 6.57377C11.8952 6.57377 13.4258 8.09184 13.4258 9.99953C13.4258 11.8935 11.8952 13.4253 10 13.4253C8.10533 13.4253 6.57426 11.8935 6.57426 9.99953C6.57426 8.09184 8.10533 6.57377 10 6.57377V6.57377Z" fill="black"/>
</svg>
